X: 135
T: I'se the b'y
M:6/8
R:jig
L:1/8
Z:added by Alf warnock alf0@rogers.com - www.alfwarnock.info/alfs
K:D
%%text 1st verse a capella. Join in at 1st chorus
|:"D"F2F F2F|"A7"E2C A,3| "D"F2F F2F|"G"G3 "A7"A3|"D"F2F F2F|"A7"E2C A,3| A,2C E2C|"D"D3 D3:|
%% text after second verse and chorus play Draught of Ale
K:G
"G"GBA G2B|def gdB|GBA G2B|"D"AFD AFD|
"G"GBA G2B|def gfg|edB "D"dBA|"G"BGG G2d||
"Em"efe edB|"D"def gfg|"Em"efe edB|"D"dBA ABd|
"Em"efe edB|"D"def gfg|"G"edB "D"dBA|"G"BGG G2|
%%text 2 verses, 2 choruses then Rakes of Kildare
K:Ador
"Am"EAA AGA|Bcd e2f|"G"~g3 ege|dBA GFG|
"Am"EAA AGA|Bcd e2f|"G"~g3 edB|"Am"A3 A2a||
"Am"aea aea|aga b2a|"G"~g3 ege| dBA G2a|
"Am"aea aea|aga b2a|"G"~g3 edB|"Am"A3 A2a|
%%text 1 more verse and chorus, then 1st verse a capella. Join in on last chorus


